X: 13567
T: Fly In The Porter, The
R: jig
M: 6/8
K: Gmajor
|:AFA d2A|dfa gfe|fed e=fd|cAG EFG|
AFA d2A|dfa gfe|fed cAG|Ad^c d3:|
|:ABA GFG|AFD FED|E2c cBc|G2G BAG|
ABA GFG|Add efg|fed cAG|Ad^c d3:|
|:fed efg|a2B ^cde|fed efg|age d2e|
f2f g2g|AdB c2e|fed cAG|Ad^c d3:|

